X: 32653
T: Plough And The Stars, The
R: reel
M: 4/4
K: Gmajor
|:GEDE GABd|gabg aged|Bd d2 ed d2|gedB AcBA|
GEDE GABd|g2 bg aged|Bd d2 gedB|1 AcBA G3 A:|2 AcBA G3d||
|:g3b a2ba|gabg aged|Bd d2 ed d2|gedB AcBA|
GD D2 GABd|g2 bg aged|Bd d2 gedB|1 AcBA G3d:|2 AcBA G3A||

